svg/Pictogram/pictograms-aem-0019-gears.svg

<?xml version="1.0" encoding="ISO-8859-1" standalone="yes"?>
<svg height="304.014" width="304.015">
  <metadata>
    <rdf:RDF xmlns:cc="http://web.resource.org/cc/" xmlns:dc="http://purl.org/dc/elements/1.1/" xmlns:rdf="http://www.w3.org/1999/02/22-rdf-syntax-ns#">
      <cc:Work rdf:about="">
        <dc:title></dc:title>
        <dc:description></dc:description>
        <dc:subject>
          <rdf:Bag>
            <rdf:li></rdf:li>
          </rdf:Bag>
        </dc:subject>
        <dc:publisher>
          <cc:Agent rdf:about="http://www.unece.org/trans/danger/publi/ghs/pictograms.html">
            <dc:title>Source: UNECE GHS of Classification and Labeling of Chemicals, Source: AEM Pictorial Database, Source: AEM Pictorial Database, Source: AEM Pictorial Database, Source: AEM Pictorial Database</dc:title>
          </cc:Agent>
        </dc:publisher>
        <dc:creator>
          <cc:Agent>
            <dc:title></dc:title>
          </cc:Agent>
        </dc:creator>
        <dc:rights>
          <cc:Agent>
            <dc:title></dc:title>
          </cc:Agent>
        </dc:rights>
        <dc:date></dc:date>
        <dc:format>image/svg+xml</dc:format>
        <dc:type rdf:resource="http://purl.org/dc/dcmitype/StillImage"/>
        <cc:license rdf:resource="http://en.wikipedia.org/wiki/Public_domain"/>
        <dc:language>en</dc:language>
      </cc:Work>
    </rdf:RDF>
  </metadata>
  <defs><marker id="ArrowEnd" markerHeight="3" markerUnits="strokeWidth" markerWidth="4" orient="auto" refX="0" refY="5" viewBox="0 0 10 10"><path d="M 0 0 L 10 5 L 0 10 z"/></marker><marker id="ArrowStart" markerHeight="3" markerUnits="strokeWidth" markerWidth="4" orient="auto" refX="10" refY="5" viewBox="0 0 10 10"><path d="M 10 0 L 0 5 L 10 10 z"/></marker> </defs>
  <g id="g2958" transform="matrix(1.3532768,0,0,1.3532781,-53.207834,-52.192858)">
    <path d="M 125.558 51.8894C 113.366 51.8894 103.48 61.7764 103.48 73.9674C 103.48 86.1634 113.366 96.0454 125.558 96.0454C 137.753 96.0454 147.636 86.1634 147.636 73.9674C 147.636 61.7764 137.753 51.8894 125.558 51.8894" style="stroke:none; fill-rule:evenodd; fill:#000000"/>
    <path d="M 103.956 153.182L 114.589 148.221L 120.401 154.6C 122.03 154.104 126.565 153.463 127.487 153.608L 130.749 146.092L 142.23 147.084L 143.933 155.592C 144.925 155.592 150.452 157.788 150.733 158.354L 157.112 153.463L 166.612 159.987L 163.917 168.346C 165.12 169.127 167.886 172.745 168.597 173.877L 176.394 172.745L 181.354 183.233L 175.116 189.045C 175.472 190.178 176.249 195.139 175.968 196.272L 183.48 199.248L 182.487 210.874L 174.265 212.717C 173.983 213.78 172.069 218.67 171.429 219.522L 176.249 225.756L 169.73 235.252L 161.647 232.702C 160.8 233.764 156.546 236.956 155.839 237.381L 156.831 245.034L 146.339 250.139L 140.671 243.76C 139.679 244.327 134.788 244.893 133.44 244.752L 130.323 252.124L 118.843 251.127L 116.999 242.909C 115.511 242.838 111.187 240.924 110.054 240.213L 103.815 244.893L 94.3194 238.374L 97.0114 230.291C 96.0194 229.655 92.8274 225.401 92.3314 224.483L 84.5384 225.471L 79.5774 215.124L 85.9564 209.456C 85.5304 208.534 84.7494 203.713 84.9644 202.225L 77.4484 199.108L 78.3004 187.487L 86.8044 185.643C 86.8044 184.581 88.9334 179.831 89.4994 179.12L 84.8194 172.745L 91.3434 162.819L 99.7024 165.514C 100.413 164.522 104.241 161.616 105.093 161.26L 103.956 153.178L 103.956 153.182zM 130.608 162.858C 110.538 162.858 94.2144 179.182 94.2144 199.248C 94.2144 208.971 98.0034 218.108 104.874 224.983C 111.749 231.858 120.886 235.639 130.608 235.639C 140.327 235.639 149.468 231.854 156.339 224.983C 163.214 218.108 166.999 208.971 166.999 199.248C 166.999 189.53 163.214 180.389 156.339 173.518C 149.468 166.643 140.327 162.858 130.608 162.858" style="stroke:none; fill-rule:evenodd; fill:#000000"/>
    <path d="M 179.808 156.467L 177.468 144.932C 176.991 144.956 170.319 139.94 170.097 139.268L 158.558 139.979C 158.269 140.065 158.097 140.116 158.097 140.116L 157.522 138.51L 149.722 123.381C 148.8 122.67 107.765 91.0024 105.577 89.0884C 101.261 85.3114 99.9094 84.2294 97.4804 83.9594C 92.0074 83.3504 90.4604 85.3114 86.6794 86.3894C 82.8974 87.4714 49.9604 100.971 49.9604 100.971L 49.9604 150.92C 49.9604 150.92 106.116 128.51 108.28 128.78C 109.104 128.881 118.647 135.959 129.968 144.436L 130.808 142.506L 143.058 143.565L 144.874 152.639C 145.933 152.639 151.831 154.983 152.132 155.588L 158.937 150.37L 169.073 157.327L 166.198 166.252C 167.237 166.924 169.358 169.569 170.538 171.198C 174.366 169.557 186.331 170.069 188.737 170.631C 191.679 171.319 198.187 174.413 198.187 174.413C 198.187 174.413 200.753 175.76 201.022 176.975C 201.437 178.838 204.265 198.17 204.804 200.6C 205.343 203.03 209.124 202.358 208.718 200.331C 208.296 198.213 207.202 190.702 206.694 187.776C 206.151 184.67 208.042 184.131 208.987 187.506C 209.679 189.971 212.769 198.44 213.847 201.682C 214.929 204.92 218.843 203.706 217.897 200.737C 217.12 198.295 213.8 188.487 212.499 185.885C 211.284 183.456 213.308 182.108 214.929 184.67C 216.026 186.409 221.616 196.108 223.163 198.983C 225.054 202.491 228.968 200.737 227.077 197.225C 226.046 195.307 221.39 187.518 219.519 184.807C 216.815 180.889 218.854 179.799 221.542 183.186C 223.358 185.479 228.241 190.319 229.776 192.366C 231.397 194.526 234.366 191.959 233.019 189.799C 231.667 187.639 219.948 175.428 218.437 172.655C 216.815 169.686 218.843 168.471 221.812 169.549C 223.589 170.198 226.487 171.764 229.37 171.983C 232.589 172.221 234.233 168.741 234.233 168.741L 191.362 154.674L 187.913 158.541L 179.808 156.471" style="stroke:none; fill-rule:evenodd; fill:#000000"/>
    <path d="M 187.39 82.1864C 188.257 81.8544 194.515 80.9324 194.921 81.1354L 201.726 73.0614L 209.112 75.0104L 211.335 85.2644C 212.425 85.6084 218.167 90.0184 218.409 90.4714L 228.964 89.6354L 232.694 96.1514L 226.929 105.014C 227.511 105.686 228.354 113.264 228.206 113.584L 236.159 120.491L 234.261 127.791L 223.995 129.944C 223.87 130.698 218.331 137.264 218.894 136.854L 219.593 147.436L 212.87 151.213L 204.144 145.416C 203.44 145.862 196.257 146.838 195.694 146.596L 188.636 154.51L 181.265 152.627L 179.136 142.135C 178.706 142.159 172.644 137.596 172.437 136.991L 161.702 137.651L 158.007 130.983L 163.925 122.155C 163.499 121.522 162.452 114.35 162.815 113.694L 154.972 106.62L 156.925 99.2334L 167.429 97.1744C 167.597 96.2644 171.819 90.9984 172.538 90.6274L 172.085 79.8464L 178.753 76.1554L 187.386 82.1864L 187.39 82.1864zM 190.683 90.3504C 177.503 93.2064 169.136 106.206 171.991 119.385C 174.851 132.565 187.851 140.932 201.03 138.073C 214.206 135.217 222.573 122.217 219.718 109.038C 216.858 95.8624 203.858 87.4954 190.683 90.3504" style="stroke:none; fill-rule:evenodd; fill:#000000"/>
    <path d="M 29.6204 265.393L 2.62042 265.393" style="stroke:#000000; stroke-width:0.5; fill:none"/>
    <path d="M 38.6204 274.393L 38.6204 301.393" style="stroke:#000000; stroke-width:0.5; fill:none"/>
    <path d="M 29.6204 38.6204L 2.62042 38.6204" style="stroke:#000000; stroke-width:0.5; fill:none"/>
    <path d="M 38.6204 29.6204L 38.6204 2.62042" style="stroke:#000000; stroke-width:0.5; fill:none"/>
    <path d="M 274.394 38.6204L 301.394 38.6204" style="stroke:#000000; stroke-width:0.5; fill:none"/>
    <path d="M 265.394 29.6204L 265.394 2.62042" style="stroke:#000000; stroke-width:0.5; fill:none"/>
    <path d="M 274.394 265.393L 301.394 265.393" style="stroke:#000000; stroke-width:0.5; fill:none"/>
    <path d="M 265.394 274.393L 265.394 301.393" style="stroke:#000000; stroke-width:0.5; fill:none"/>
  </g>
</svg>

<svg viewBox="0 0 304.01 304.01"><g transform="matrix(1.35328 0 0 1.35328-53.21-52.19)" fill-rule="evenodd"><path d="m125.56 51.889c-12.192 0-22.08 9.887-22.08 22.08 0 12.196 9.886 22.08 22.08 22.08 12.195 0 22.08-9.882 22.08-22.08 0-12.191-9.883-22.08-22.08-22.08"/><path d="m103.96 153.18l10.633-4.961 5.812 6.379c1.629-.496 6.164-1.137 7.086-.992l3.262-7.516 11.481.992 1.703 8.508c.992 0 6.519 2.196 6.8 2.762l6.379-4.891 9.5 6.524-2.695 8.359c1.203.781 3.969 4.399 4.68 5.531l7.797-1.132 4.96 10.488-6.238 5.812c.356 1.133 1.133 6.094.852 7.227l7.512 2.976-.993 11.626-8.222 1.843c-.282 1.063-2.196 5.953-2.836 6.805l4.82 6.234-6.519 9.496-8.08-2.55c-.847 1.062-5.101 4.254-5.808 4.679l.992 7.653-10.492 5.105-5.668-6.379c-.992.567-5.883 1.133-7.231.992l-3.117 7.372-11.48-.997-1.844-8.218c-1.488-.071-5.812-1.985-6.945-2.696l-6.239 4.68-9.496-6.519 2.692-8.08c-.992-.636-4.184-4.89-4.68-5.808l-7.793.988-4.961-10.347 6.379-5.668c-.426-.922-1.207-5.743-.992-7.231l-7.516-3.117.852-11.621 8.504-1.844c0-1.062 2.129-5.812 2.695-6.523l-4.68-6.375 6.524-9.926 8.359 2.695c.711-.992 4.539-3.898 5.391-4.254l-1.137-8.08v.004m26.652 9.676c-20.07 0-36.39 16.324-36.39 36.39 0 9.723 3.789 18.86 10.66 25.735 6.875 6.875 16.01 10.656 25.734 10.656 9.719 0 18.86-3.785 25.731-10.656 6.875-6.875 10.66-16.01 10.66-25.735 0-9.718-3.785-18.859-10.66-25.73-6.871-6.875-16.01-10.66-25.731-10.66"/><path d="m179.81 156.47l-2.34-11.535c-.477.024-7.149-4.992-7.371-5.664l-11.539.711c-.289.086-.461.137-.461.137l-.575-1.606-7.8-15.13c-.922-.711-41.957-32.379-44.15-34.29-4.316-3.777-5.668-4.859-8.097-5.129-5.473-.609-7.02 1.352-10.801 2.43-3.782 1.082-36.719 14.582-36.719 14.582v49.949c0 0 56.16-22.41 58.32-22.14.824.101 10.367 7.179 21.688 15.656l.84-1.93 12.25 1.059 1.816 9.07c1.059 0 6.957 2.344 7.258 2.949l6.805-5.218 10.136 6.957-2.875 8.925c1.039.672 3.16 3.317 4.34 4.946 3.828-1.641 15.793-1.129 18.199-.567 2.942.688 9.45 3.782 9.45 3.782 0 0 2.566 1.347 2.835 2.562.415 1.863 3.243 21.19 3.782 23.625.539 2.43 4.32 1.758 3.914-.269-.422-2.118-1.516-9.629-2.024-12.555-.543-3.106 1.348-3.645 2.293-.27.692 2.465 3.782 10.934 4.86 14.176 1.082 3.238 4.996 2.024 4.05-.945-.777-2.442-4.097-12.25-5.398-14.852-1.215-2.429.809-3.777 2.43-1.215 1.097 1.739 6.687 11.438 8.234 14.313 1.891 3.508 5.805 1.754 3.914-1.758-1.031-1.918-5.687-9.707-7.558-12.418-2.704-3.918-.665-5.01 2.023-1.621 1.816 2.293 6.699 7.133 8.234 9.18 1.621 2.16 4.59-.407 3.243-2.567-1.352-2.16-13.07-14.371-14.582-17.14-1.622-2.969.406-4.184 3.375-3.106 1.777.649 4.675 2.215 7.558 2.434 3.219.238 4.863-3.242 4.863-3.242l-42.871-14.07-3.449 3.867-8.105-2.07"/><path d="m187.39 82.19c.867-.332 7.125-1.254 7.531-1.051l6.805-8.07 7.386 1.949 2.223 10.254c1.09.344 6.832 4.754 7.07 5.207l10.555-.836 3.73 6.516-5.765 8.863c.582.672 1.425 8.25 1.277 8.57l7.953 6.907-1.898 7.3-10.266 2.153c-.125.754-5.664 7.32-5.101 6.91l.699 10.582-6.723 3.777-8.726-5.797c-.704.446-7.887 1.422-8.45 1.18l-7.06 7.914-7.371-1.883-2.129-10.492c-.43.024-6.492-4.539-6.699-5.144l-10.735.66-3.695-6.668 5.918-8.828c-.426-.633-1.473-7.805-1.11-8.461l-7.843-7.07 1.953-7.387 10.504-2.059c.168-.91 4.39-6.176 5.109-6.547l-.453-10.781 6.668-3.691 8.633 6.03h.004m3.293 8.164c-13.18 2.856-21.547 15.856-18.692 29.03 2.86 13.18 15.86 21.547 29.04 18.688 13.176-2.856 21.543-15.856 18.688-29.04-2.86-13.176-15.86-21.543-29.03-18.688"/></g></svg>
